papirus/16x16/mimetypes/text-x-python.svg

<?xml version="1.0" encoding="UTF-8" standalone="no"?>
<svg id="svg2" xmlns:rdf="http://www.w3.org/1999/02/22-rdf-syntax-ns#" xmlns="http://www.w3.org/2000/svg" height="16px" width="16px" version="1.1" xmlns:cc="http://creativecommons.org/ns#" viewBox="0 0 16 16" xmlns:dc="http://purl.org/dc/elements/1.1/">
 <metadata id="metadata19">
  <rdf:RDF>
   <cc:Work rdf:about="">
    <dc:format>image/svg+xml</dc:format>
    <dc:type rdf:resource="http://purl.org/dc/dcmitype/StillImage"/>
   </cc:Work>
  </rdf:RDF>
 </metadata>
 <path id="path5" fill="#ccc" d="m2.75 1c-0.4172 0-0.75 0.3328-0.75 0.75v13.5c0 0.417 0.3328 0.75 0.75 0.75h10.5c0.418 0 0.75-0.332 0.75-0.75v-9.75l-4.125-0.375-0.375-4.125z"/>
 <path id="path7" fill="#f8f8f0" d="m9.5 1v3.75c0 0.41256 0.33744 0.75 0.75 0.75h3.75z"/>
 <path id="path11" fill-opacity=".2" fill="#fff" d="m2.75 1c-0.4172 0-0.75 0.3328-0.75 0.75v0.6c0-0.4172 0.3328-0.75 0.75-0.75h6.75v-0.6z"/>
 <g id="g4145" transform="matrix(1.0666 0 0 1.0255 -.37295 -.48592)">
  <path id="path9" fill-opacity=".50196" d="m7.6156 7.3c-0.9093 0-1.7719 0.6-1.7156 1.2469v0.85313h-0.62813c-0.64692 0-1.1719 0.58128-1.1719 1.4906v0.46874c0 0.9096 0.525 1.6404 1.1719 1.6404h0.62813v-0.9375c0-0.5208 0.49224-0.8628 1.0126-0.8628h1.875s1.0125-0.075 1.0125-1.0125v-1.6406c0-0.6468-0.80628-1.2468-1.7156-1.2468zm-0.6656 0.9c0.2484 0 0.45 0.2016 0.45 0.45s-0.2016 0.45-0.45 0.45-0.45-0.2016-0.45-0.45 0.2016-0.45 0.45-0.45z"/>
  <path id="path13" fill-opacity=".30196" d="m8.0844 15.1c0.9093 0 1.7719-0.6 1.7156-1.247v-0.85313h0.62813c0.6468 0 1.1724-0.5808 1.1724-1.4904v-0.46874c0-0.90912-0.5256-1.6404-1.1724-1.6404h-0.6276v0.93744c0 0.52032-0.49224 0.86256-1.0126 0.86256h-1.875s-1.0125 0.075-1.0125 1.0125v1.6406c0 0.6468 0.80628 1.2468 1.7156 1.2468zm0.6656-0.9c-0.2484 0-0.45-0.2016-0.45-0.45s0.2016-0.45 0.45-0.45 0.45 0.2016 0.45 0.45-0.2016 0.45-0.45 0.45z"/>
 </g>
</svg>

<?xml version="1.0" encoding="UTF-8" standalone="no"?>
<svg
   xmlns:dc="http://purl.org/dc/elements/1.1/"
   xmlns:cc="http://creativecommons.org/ns#"
   xmlns:rdf="http://www.w3.org/1999/02/22-rdf-syntax-ns#"
   xmlns:svg="http://www.w3.org/2000/svg"
   xmlns="http://www.w3.org/2000/svg"
   xmlns:sodipodi="http://sodipodi.sourceforge.net/DTD/sodipodi-0.dtd"
   xmlns:inkscape="http://www.inkscape.org/namespaces/inkscape"
   id="svg2"
   height="16px"
   width="16px"
   version="1.1"
   viewBox="0 0 16 16"
   inkscape:version="0.91 r"
   sodipodi:docname="text-x-python.svg">
  <defs
     id="defs12" />
  <sodipodi:namedview
     pagecolor="#ffffff"
     bordercolor="#666666"
     borderopacity="1"
     objecttolerance="10"
     gridtolerance="10"
     guidetolerance="10"
     inkscape:pageopacity="0"
     inkscape:pageshadow="2"
     inkscape:window-width="1535"
     inkscape:window-height="876"
     id="namedview10"
     showgrid="false"
     inkscape:zoom="14.75"
     inkscape:cx="8"
     inkscape:cy="8"
     inkscape:window-x="65"
     inkscape:window-y="24"
     inkscape:window-maximized="1"
     inkscape:current-layer="svg2" />
  <metadata
     id="metadata19">
    <rdf:RDF>
      <cc:Work
         rdf:about="">
        <dc:format>image/svg+xml</dc:format>
        <dc:type
           rdf:resource="http://purl.org/dc/dcmitype/StillImage" />
      </cc:Work>
    </rdf:RDF>
  </metadata>
  <path
     style="fill:#ebe8d7"
     inkscape:connector-curvature="0"
     d="M 2.75,1 C 2.33276,1 2,1.33276 2,1.75 l 0,13.5 C 2,15.667192 2.332808,16 2.75,16 l 10.5,0 C 13.6676,16 14,15.6676 14,15.25 L 14,5.5 9.875,5.125 9.5,1 Z"
     id="path5" />
  <path
     style="fill:#f8f8f0"
     inkscape:connector-curvature="0"
     d="m 9.5,1 0,3.75 c 0,0.41256 0.33744,0.75 0.75,0.75 l 3.75,0 z"
     id="path7" />
  <path
     style="fill:#ffffff;fill-opacity:0.2"
     inkscape:connector-curvature="0"
     d="M 2.75,1 C 2.33276,1 2,1.33276 2,1.75 l 0,0.6 C 2,1.93276 2.33276,1.6 2.75,1.6 l 6.75,0 0,-0.6 z"
     id="path11" />
  <g
     id="g4145"
     transform="matrix(1.0665848,0,0,1.0255259,-0.37294648,-0.48592104)">
    <path
       id="path9"
       d="M 7.61564,7.3 C 6.70628,7.3 5.84372,7.9 5.9,8.54692 l 0,0.853128 -0.628128,0 c -0.64692,0 -1.17192,0.58128 -1.17192,1.49064 l 0,0.468744 c 0,0.9096 0.525,1.6404 1.17192,1.6404 l 0.628128,0 0,-0.9375 c 0,-0.5208 0.49224,-0.8628 1.01256,-0.8628 l 1.875,0 c 0,0 1.0125,-0.075 1.0125,-1.0125 l 0,-1.64064 c 0,-0.6468 -0.80628,-1.2468 -1.71564,-1.2468 z M 6.95,8.2 C 7.1984,8.2 7.4,8.4016 7.4,8.65 7.4,8.8984 7.1984,9.1 6.95,9.1 6.7016,9.1 6.5,8.8984 6.5,8.65 6.5,8.4016 6.7016,8.2 6.95,8.2 Z"
       inkscape:connector-curvature="0"
       style="fill-opacity:0.50196031" />
    <path
       id="path13"
       d="M 8.08436,15.1 C 8.99372,15.1 9.85628,14.5 9.8,13.8532 l 0,-0.853128 0.628128,0 c 0.6468,0 1.1724,-0.5808 1.1724,-1.4904 l 0,-0.468744 c 0,-0.90912 -0.5256,-1.6404 -1.1724,-1.6404 l -0.6276,0 0,0.93744 c 0,0.52032 -0.49224,0.86256 -1.01256,0.86256 l -1.875,0 c 0,0 -1.0125,0.075 -1.0125,1.0125 l 0,1.64064 c 0,0.6468 0.80628,1.2468 1.71564,1.2468 z M 8.75,14.2 c -0.2484,0 -0.45,-0.2016 -0.45,-0.45 0,-0.2484 0.2016,-0.45 0.45,-0.45 0.2484,0 0.45,0.2016 0.45,0.45 0,0.2484 -0.2016,0.45 -0.45,0.45 z"
       inkscape:connector-curvature="0"
       style="fill-opacity:0.30196001" />
  </g>
</svg>
